X: 586
%
U:~=!turn!
T: The Steam-Boat
C:
O:Scotland
B:Keith Norman MacDonald : "The Skye collection of the best reels & strathspeys extant" : 1887
Z:Ralph Palmer
R:Hornpipe
M:C
L:1/8
K:A
(cd) | e2 ae c2 ec | A2 cA E2 AE | F2 BA GBec | decd B2 (cd) | e2 ae c2 ec | A2 cA E2 AE | Ffed cABG | A2 A2 A2 ||
(cd) | e^def ecAc | dcde dBGB | ABcd efga | bagf edcd | e^def ecAc | dcde dBGB | Afed cABG | A2 A2 A2 |]


